X: 184
T: the Hamburgh Dance
%R: reel
M: C|
L: 1/8
Z: 2014 John Chambers <jc:trillian.mit.edu>
B: Chas & Sam Thompson "Twenty Four Country Dances for the Year 1772", London 1772, p.92
F: http://folkopedia.efdss.org/images/8/89/Thompson_24_1772.PDF
K: Eb
|:\
Eedc BAGF | GEDE FDB,2 |\
BEcE dEeE | D2E2 F4 :|\
|:\
fBgB fB=AB | (c/d/e) dc dB=AB |
fBgB aBbB | fedc BAGF |\
Eedc BAGF | GEDE FDB,2 |\
BEcE dEe2 | BAGF E4 :|
% - - - - - - - - - - - - - - - - - - - - - - - - -
%%begintext align
%% Foot it all 4 & change places .|. the same back
%% again :|. lead down the middle up again & cast off
%% 1 Cu. .|: hands 4 at bottom Right & Left at top :|:
%%endtext
% - - - - - - - - - - - - - - - - - - - - - - - - -

%%sep 1 1 500
%%sep 1 1 500
